X:3047
L:1/8
M:4/4
K:C
[M:6/8][K:Emin] ebabc fde bb .eaed"^Miss Casey's Jig"[Q:1/8=160] .B | EFE EDB, | GFG AGA | 
 BGB AFA | GEF EDB, |"^5" A,3 EDB, | GFG AGA |1 BGB AFA | GEE E2 :|2 BdB AdF | EFE E2 |] d | 
"^9" ege dBA | GAB d2 g | edB AGA | BGE DB,A, |"^13" B,EE EDB, | G3 AGA |1 BGB AFA | GEE E2 :|2 
 BdB AdF | EFE E2 |] d |"^17" e/f/ge ded | cBA B2 A | GAB dBA | B3 B2 A |"^21" EGF EDB, | 
 GFG AGA |1 BGB AFA | GEE E2 :|2 BcB ABA | GEE E3 |]

